src/assets/img/unsorted/emotes/10.svg

<svg xmlns:xlink="http://www.w3.org/1999/xlink" height="100.8" width="132.65" xmlns="http://www.w3.org/2000/svg"><g transform="translate(77.75 73.55)"><use height="34" transform="translate(-21.95 -12.6)" width="48.4" xlink:href="#a"/><use height="7.15" transform="translate(-7.15 -8.45)" width="14.05" xlink:href="#b"/></g><defs><path d="M.85-.85q.35.35.35.85T.85.85Q.5 1.2 0 1.2T-.85.85Q-1.2.5-1.2 0t.35-.85Q-.5-1.2 0-1.2t.85.35" fill="#fff" fill-rule="evenodd" transform="translate(1.2 1.2)" id="d"/><path d="m6.4-1.8-.15-1.3-.45-1.85-.75-1.75-.9-1-1.05-.25-.7.85-.65 1.25-.35 1.2-.2 1.25v.45M-6.65-1.8l.05-.4q.15-2.05.75-3.6.75-2.2 1.9-2.15l.65.15q.75.45 1.3 2 .6 1.6.55 2.55" fill="none" stroke="#666" stroke-linecap="round" stroke-linejoin="round" transform="translate(7.15 8.45)" id="b"/><use height="18.35" width="23.25" xlink:href="#c" id="e"/><use height="2.4" width="2.4" xlink:href="#d" id="f"/><g id="a" transform="translate(21.9 19.75)"><use height="18.35" transform="translate(-11.45 -5.95)" width="23.25" xlink:href="#e"/><use height="2.4" transform="translate(-20.35 -17.6)" width="2.4" xlink:href="#f"/><use height="2.4" transform="translate(-17.45 -14.25)" width="2.4" xlink:href="#f"/><use height="2.4" transform="translate(-13.3 -15.35)" width="2.4" xlink:href="#f"/><use height="2.4" transform="translate(10.95 -13.25)" width="2.4" xlink:href="#f"/><use height="2.4" transform="translate(20.45 -15.35)" width="2.4" xlink:href="#f"/><use height="2.4" transform="translate(15.55 -15.55)" width="2.4" xlink:href="#f"/><use height="2.4" transform="translate(-15.35 -18.7)" width="2.4" xlink:href="#f"/><use height="2.4" transform="translate(15.45 -11.95)" width="2.4" xlink:href="#f"/></g><g id="c"><path d="M3-.9q.9-.95.6-2.4-.45-2.35-2.55-1.6-.65.2-.35.95.45 1.2-.5 1.35-2.65.55-2.2-1.6.1-.6-.4-.6-2.35-.1-2.15 2.35Q-4.4-1-3.6.05l-.25.15Q-5.6 1.45-5.1 3.95l-3.75.15Q-11.5 3.25-11 .15q.75-4.7 5.1-7.3 4.05-2.35 8.6-1 3.8.95 6.15 3.95 1.4 1.65 2.05 3.65.7 2-.4 3.6-.65.85-2.8.55l-2.2-.65q.25-.65 0-1.3Q4.85-.2 3-.9" fill="#333" fill-rule="evenodd" transform="translate(11.6 9.15)"/><path d="m3-.9-.05-.05-3.6-.25Q-2.3-.85-3.6.05q-.8-1.05-.95-2.5-.2-2.45 2.15-2.35.5 0 .4.6-.45 2.15 2.2 1.6.95-.15.5-1.35-.3-.75.35-.95 2.1-.75 2.55 1.6.3 1.45-.6 2.4" fill-rule="evenodd" transform="translate(11.6 9.15)"/><path d="M-3.6.05q1.3-.9 2.95-1.25l3.6.25L3-.9q1.85.7 2.5 2.55.25.65 0 1.3l-.75-.3q-4.6-1.6-9.05.9l-.8.4Q-5.6 1.45-3.85.2l.25-.15" fill="#c00" fill-rule="evenodd" transform="translate(11.6 9.15)"/><path d="m-5.1 3.95.8-.4q4.45-2.5 9.05-.9l.75.3 2.2.65q2.15.3 2.8-.55 1.1-1.6.4-3.6-.65-2-2.05-3.65-2.35-3-6.15-3.95-4.55-1.35-8.6 1-4.35 2.6-5.1 7.3-.5 3.1 2.15 3.95l3.75-.15M2.35 5.3q.1 1.35 1.25 1.95M.6 4.8v3.9m-2.25-3.4q0 .9-.3 1.75" fill="none" stroke="#333" stroke-linecap="round" stroke-linejoin="round" transform="translate(11.6 9.15)"/></g></defs></svg>

<?xml version="1.0" encoding="UTF-8" standalone="no"?>
<svg xmlns:xlink="http://www.w3.org/1999/xlink" height="100.8px" width="132.65px" xmlns="http://www.w3.org/2000/svg">
  <g transform="matrix(1.0, 0.0, 0.0, 1.0, 77.75, 73.55)">
    <use height="34.0" transform="matrix(1.0, 0.0, 0.0, 1.0, -21.95, -12.6)" width="48.4" xlink:href="#sprite0"/>
    <use height="7.15" transform="matrix(1.0, 0.0, 0.0, 1.0, -7.15, -8.45)" width="14.05" xlink:href="#shape2"/>
  </g>
  <defs>
    <g id="sprite0" transform="matrix(1.0, 0.0, 0.0, 1.0, 21.9, 19.75)">
      <use height="18.35" transform="matrix(1.0, 0.0, 0.0, 1.0, -11.45, -5.95)" width="23.25" xlink:href="#sprite1"/>
      <use height="2.4" transform="matrix(1.0, 0.0, 0.0, 1.0, -20.35, -17.6)" width="2.4" xlink:href="#sprite2"/>
      <use height="2.4" transform="matrix(1.0, 0.0, 0.0, 1.0, -17.45, -14.25)" width="2.4" xlink:href="#sprite2"/>
      <use height="2.4" transform="matrix(1.0, 0.0, 0.0, 1.0, -13.3, -15.35)" width="2.4" xlink:href="#sprite2"/>
      <use height="2.4" transform="matrix(1.0, 0.0, 0.0, 1.0, 10.95, -13.25)" width="2.4" xlink:href="#sprite2"/>
      <use height="2.4" transform="matrix(1.0, 0.0, 0.0, 1.0, 20.45, -15.35)" width="2.4" xlink:href="#sprite2"/>
      <use height="2.4" transform="matrix(1.0, 0.0, 0.0, 1.0, 15.55, -15.55)" width="2.4" xlink:href="#sprite2"/>
      <use height="2.4" transform="matrix(1.0, 0.0, 0.0, 1.0, -15.35, -18.7)" width="2.4" xlink:href="#sprite2"/>
      <use height="2.4" transform="matrix(1.0, 0.0, 0.0, 1.0, 15.45, -11.95)" width="2.4" xlink:href="#sprite2"/>
    </g>
    <g id="sprite1" transform="matrix(1.0, 0.0, 0.0, 1.0, 11.6, 9.15)">
      <use height="18.35" transform="matrix(1.0, 0.0, 0.0, 1.0, -11.6, -9.15)" width="23.25" xlink:href="#shape0"/>
    </g>
    <g id="shape0" transform="matrix(1.0, 0.0, 0.0, 1.0, 11.6, 9.15)">
      <path d="M3.0 -0.9 Q3.9 -1.85 3.6 -3.3 3.15 -5.65 1.05 -4.9 0.4 -4.7 0.7 -3.95 1.15 -2.75 0.2 -2.6 -2.45 -2.05 -2.0 -4.2 -1.9 -4.8 -2.4 -4.8 -4.75 -4.9 -4.55 -2.45 -4.4 -1.0 -3.6 0.05 L-3.85 0.2 Q-5.6 1.45 -5.1 3.95 L-8.85 4.1 Q-11.5 3.25 -11.0 0.15 -10.25 -4.55 -5.9 -7.15 -1.85 -9.5 2.7 -8.15 6.5 -7.2 8.85 -4.2 10.25 -2.55 10.9 -0.55 11.6 1.45 10.5 3.05 9.85 3.9 7.7 3.6 L5.5 2.95 Q5.75 2.3 5.5 1.65 4.85 -0.2 3.0 -0.9" fill="#333333" fill-rule="evenodd" stroke="none"/>
      <path d="M3.0 -0.9 L2.95 -0.95 -0.65 -1.2 Q-2.3 -0.85 -3.6 0.05 -4.4 -1.0 -4.55 -2.45 -4.75 -4.9 -2.4 -4.8 -1.9 -4.8 -2.0 -4.2 -2.45 -2.05 0.2 -2.6 1.15 -2.75 0.7 -3.95 0.4 -4.7 1.05 -4.9 3.15 -5.65 3.6 -3.3 3.9 -1.85 3.0 -0.9" fill="#000000" fill-rule="evenodd" stroke="none"/>
      <path d="M-3.6 0.05 Q-2.3 -0.85 -0.65 -1.2 L2.95 -0.95 3.0 -0.9 Q4.85 -0.2 5.5 1.65 5.75 2.3 5.5 2.95 L4.75 2.65 Q0.15 1.05 -4.3 3.55 L-5.1 3.95 Q-5.6 1.45 -3.85 0.2 L-3.6 0.05" fill="#cc0000" fill-rule="evenodd" stroke="none"/>
      <path d="M-5.1 3.95 L-4.3 3.55 Q0.15 1.05 4.75 2.65 L5.5 2.95 7.7 3.6 Q9.85 3.9 10.5 3.05 11.6 1.45 10.9 -0.55 10.25 -2.55 8.85 -4.2 6.5 -7.2 2.7 -8.15 -1.85 -9.5 -5.9 -7.15 -10.25 -4.55 -11.0 0.15 -11.5 3.25 -8.85 4.1 L-5.1 3.95 M2.35 5.3 Q2.45 6.65 3.6 7.25 M0.6 4.8 L0.6 8.7 M-1.65 5.3 Q-1.65 6.2 -1.95 7.05" fill="none" stroke="#333333" stroke-linecap="round" stroke-linejoin="round" stroke-width="1.0"/>
    </g>
    <g id="sprite2" transform="matrix(1.0, 0.0, 0.0, 1.0, 1.2, 1.2)">
      <use height="2.4" transform="matrix(1.0, 0.0, 0.0, 1.0, -1.2, -1.2)" width="2.4" xlink:href="#shape1"/>
    </g>
    <g id="shape1" transform="matrix(1.0, 0.0, 0.0, 1.0, 1.2, 1.2)">
      <path d="M0.85 -0.85 Q1.2 -0.5 1.2 0.0 1.2 0.5 0.85 0.85 0.5 1.2 0.0 1.2 -0.5 1.2 -0.85 0.85 -1.2 0.5 -1.2 0.0 -1.2 -0.5 -0.85 -0.85 -0.5 -1.2 0.0 -1.2 0.5 -1.2 0.85 -0.85" fill="#ffffff" fill-rule="evenodd" stroke="none"/>
    </g>
    <g id="shape2" transform="matrix(1.0, 0.0, 0.0, 1.0, 7.15, 8.45)">
      <path d="M6.4 -1.8 L6.25 -3.1 5.8 -4.95 5.05 -6.7 4.15 -7.7 3.1 -7.95 2.4 -7.1 1.75 -5.85 1.4 -4.65 1.2 -3.4 1.2 -2.95 M-6.65 -1.8 L-6.6 -2.2 Q-6.45 -4.25 -5.85 -5.8 -5.1 -8.0 -3.95 -7.95 L-3.3 -7.8 Q-2.55 -7.35 -2.0 -5.8 -1.4 -4.2 -1.45 -3.25" fill="none" stroke="#666666" stroke-linecap="round" stroke-linejoin="round" stroke-width="1.0"/>
    </g>
  </defs>
</svg>
